src/pos-icons/lock-open-check.svg

<svg height="24" viewBox="0 0 24 24" width="24" xmlns="http://www.w3.org/2000/svg"><path d="m18 8c1.1 0 2 .9 2 2v10c0 1.1-.9 2-2 2h-12c-1.11 0-2-.9-2-2v-10c0-1.1.89-2 2-2h9v-2c0-1.66-1.34-3-3-3s-3 1.34-3 3h-2c0-2.76 2.24-5 5-5s5 2.24 5 5v2zm-7 11 6.25-6.24-1.41-1.41-4.84 4.83-2.59-2.58-1.41 1.4z"/></svg>

<?xml version="1.0" encoding="UTF-8"?><!DOCTYPE svg PUBLIC "-//W3C//DTD SVG 1.1//EN" "http://www.w3.org/Graphics/SVG/1.1/DTD/svg11.dtd"><svg xmlns="http://www.w3.org/2000/svg" xmlns:xlink="http://www.w3.org/1999/xlink" version="1.1" id="mdi-lock-open-check" width="24" height="24" viewBox="0 0 24 24"><path d="M18 8C19.1 8 20 8.9 20 10V20C20 21.1 19.1 22 18 22H6C4.89 22 4 21.1 4 20V10C4 8.9 4.89 8 6 8H15V6C15 4.34 13.66 3 12 3C10.34 3 9 4.34 9 6H7C7 3.24 9.24 1 12 1C14.76 1 17 3.24 17 6V8H18M11 19L17.25 12.76L15.84 11.35L11 16.18L8.41 13.6L7 15L11 19Z" /></svg>
